src/assets/img/icons/duotone-icons/Design/Pencil.svg

<?xml version="1.0" encoding="UTF-8"?>
<svg width="24px" height="24px" viewBox="0 0 24 24" version="1.1" xmlns="http://www.w3.org/2000/svg" xmlns:xlink="http://www.w3.org/1999/xlink">
    <!-- Generator: Sketch 52.2 (67145) - http://www.bohemiancoding.com/sketch -->
    <title>Stockholm-icons / Design / Pencil</title>
    <desc>Created with Sketch.</desc>
    <g id="Stockholm-icons-/-Design-/-Pencil" stroke="none" stroke-width="1" fill="none" fill-rule="evenodd">
        <rect id="bound" x="0" y="0" width="24" height="24"></rect>
        <path d="M10.5,8 L6,19 C6.0352633,19.1332661 6.06268417,19.2312688 6.08226261,19.2940083 C6.43717645,20.4313361 8.07642225,21 9,21 C10.5,21 11,19 12.5,19 C14,19 14.5917308,20.9843119 16,21 C16.9388462,21.0104588 17.9388462,20.3437921 19,19 L14.5,8 L10.5,8 Z" id="Path-18" fill="#335EEA"></path>
        <path d="M11.3,6 L12.5,3 L13.7,6 L11.3,6 Z M14.5,8 L10.5,8 L14.5,8 Z" id="Combined-Shape" fill="#335EEA"></path>
    </g>
</svg>

<svg width="24" height="24" viewBox="0 0 24 24" xmlns="http://www.w3.org/2000/svg"><g fill="none" fill-rule="evenodd"><path d="M0 0h24v24H0z"/><path d="M10.5 8L6 19c.035.133.063.231.082.294C6.437 20.431 8.076 21 9 21c1.5 0 2-2 3.5-2s2.092 1.984 3.5 2c.939.01 1.939-.656 3-2L14.5 8h-4zM11.3 6l1.2-3 1.2 3h-2.4zm3.2 2h-4 4z" fill="#335EEA"/></g></svg>
